X:1
T:Tico Tico No Fuba
T:Tico Tico No Fuba
T:Zequina
C:Zequina
%%score 1 2 ( 3 4 ) ( 5 6 )
L:1/8
Q:1/4=100
M:2/4
K:C
V:1 treble-8 nm="Classical Guitar" snm="Guit."
V:2 treble-8 nm="Classical Guitar" snm="Guit."
V:3 treble-8 nm="Classical Guitar" snm="Guit."
V:4 treble-8 
V:5 treble-8 nm="Classical Guitar" snm="Guit."
V:6 treble-8 
V:1
!ff! e'/d'c'/ ba | ^gb c'd' | e'2 !arpeggio![be']2- | [be']2 z/ e/^d/e/ | f/e/[ea]- [ea]/e/^d/e/ | %5
 f/e/^g- g/e/^d/e/ | f/e/d'/b/ ^g/f/d/_d/ | c2 z/ a/^g/=g/ | f/a/d'- d'/c'/a/f/ | %9
 e/a/c'- c'/c'/b/^a/ | b/B/^d/^f/ b/f/b/a/ | ^g/[be'][egbe']/ [egbe'] z | %12
!mf!"^Do something over this or play this rhythm" [c'e']/[c'e'][c'e']/- [c'e'][c'e'] | %13
 [bd']/[bd'][bd']/- [bd'][bd'] | [bd']/[bd'][bd']/- [bd'][bd'] | %15
 [c'e']/[c'e'][c'e']/- [c'e'][c'e'] | [d'f']/[d'f'][d'f'-]/ [d'f'][d'f'] | %17
 [c'e']/[c'e'][c'e']/- [c'e'][c'e'] | [bd']/[bd'][bd']/- [bd'][bd'] | [ac'] z z/!ff! a/^c'/e'/ |: %20
[K:A] a'/a/c'/g'/- g'/a/c'/f'/ | f'/a/c'/e'/- e'/a/c'/f'/ | f'/a/c'/e'/- e'/a/c'/e'/ | %23
 f'/b/d'/e'/- e'/b/d'/e'/ | a'/b/d'/g'/- g'/b/d'/f'/ | f'/b/d'/e'/- e'/b/d'/e'/ | %26
 a'/b/d'/g'/- g'/b/d'/f'/ | f'/a/c'/e'/- e'/a/c'/e'/ | a'/a/c'/g'/- g'/a/c'/f'/ | %29
 f'/a/c'/e'/- e'/a/c'/e'/ | f'/e'/c'/a/ f'/e'/c'/a/ | b/^a/b/c'/ d'2 | z2 z2 | z4 | z4 |1 %35
 z z z/ a/c'/e'/ :|2 z2[Q:1/4=10] !arpeggio!!fermata![=G,B,D=F]/[Q:1/4=100]!ff!b/_b/a/ |: %37
[K:C] g/c/e/g/ c'/e'/g'/^g'/ | a'>f'- f'/b/_b/a/ | g/B/d/g/ b/d'/f'/g'/ | a'>e'- (3e'c'c' | %41
 c'b/b/ ba/a/ | a>f- (3fbb | ba/a/ ag/a/ | g4 | g/c/e/g/ c'/e'/g'/^g'/ | a'>f'- f'/b/_b/a/ | %47
 g/B/d/g/ b/d'/f'/g'/ | a'>e'- e'/c'/b/_b/ | a/^g/a/b/ d'/c'/b/c'/ | e'/g/c'/e'/ g'/_g'/f'/e'/ | %51
 d'/c'/b/a/ g/f/e/d/ | cG c/b/_b/a/ | cG c/[Q:1/4=60] z/ z | z2 z2 | z4 | z4 | z4 | z4 | z4 | z4 | %61
 z4 | z4 | z4 | z4 | z4 | z4 | z4 |] %68
V:2
 c'/ba/ ^gf | e^g ab | e'2 !arpeggio![e^g]2- | [eg]2 z2 | [c'e']/[c'e'][c'e']/- [c'e'][c'e'] | %5
 [bd']/[bd'][bd']/- [bd'][bd'] | [bd']/[bd'][bd']/- [bd'][bd'] | %7
 [c'e']/[c'e'][c'e']/- [c'e'][c'e'] | [d'f']/[d'f'][d'f'-]/ [d'f'][d'f'] | %9
 [c'e']/[c'e'][c'e']/- [c'e'][c'e'] | z4 | B/[e^g][eg]/ z/!ff! e/^d/e/ | f/e/[ea]- [ea]/e/^d/e/ | %13
 f/e/^g- g/e/^d/e/ | f/e/d'/b/ ^g/f/d/_d/ | c2 z/ a/^g/=g/ | f/a/d'- d'/c'/a/f/ | %17
 e/a/c'- c'/c'/b/^a/ | b/e/^g/b/ e'/d'/c'/b/ | ae a z |:[K:A]!f! A,/[Ace][Ace]/ E,[Ace] | %21
 A,/[Ace][Ace]/ E,[Ace] | A,/[Ace][Ace]/ E,[_B,Ace] | B,/[Bdf][Bdf]/ E,[Bdf] | %24
 B,/[Bdf][Bdf]/ E,[Bdf] | B,/[Bdf][Bdf]/ E,[Bdf] | B,/[Bdf][Bdf]/ E,[G,Bdf] | %27
 A,/[Ace][Ace]/ E,[Ace] | A,/[Ace][Ace]/ E,[Ace] | A,/[Ace][Ace]/ E,[Ace] | F,3 A, | [B,Bd]2 z2 | %32
 d/c/d/e/ f/g/a/b/ | c'/d'/^d'/e'/ f'/e'/=d'/c'/ | b/a/g/f/ e/d/c/B/ |1 AE A2 :|2 %36
 AG !fermata!=G/B/_B/A/ |:[K:C] G/C/E/G/ c/e/g/^g/ | a>f- f/B/_B/A/ | G/B,/D/G/ B/d/f/g/ | %40
 a>e- (3eee | ed/d/ dc/c/ | c>d- (3ddd | dc/c/ cB/c/ |!ff! c'/e'/c'/a/ ^g/c'/a/g/ | %45
 G/C/E/G/ c/e/g/^g/ | a>f- f/B/_B/A/ | G/B,/D/G/ B/d/f/g/ | a>e- e/c/B/_B/ | A/^G/A/B/ d/c/B/c/ | %50
 e/G/c/e/ g/_g/f/e/ | d/c/B/A/ G/F/E/D/ | CG, C/B/_B/A/ | CG, C/ z/ z | z4 | z2 z2 | z4 | z4 | z4 | %59
 z4 | z4 | z4 | z4 | z4 | z4 | z4 | z4 | z4 |] %68
V:3
 e/dc/ BA | ^GB cd | e2 !arpeggio![E^GB]2- | [EGB]2 z2 | %4
"^Do something over this or play this rhythm" [cea]3 [cea] | [E,Bd^g]4 | [Bd^g]3 [Bdg] | %7
 [Acea]3 [Acea] | [dfa]3 [dfa] | [cea]3 [cea] | [B,B^d^f]3 [B,Bdf] | [Be^g]3 [Beg] | %12
 [A,cea]3 [cea] | [E,Be^g]4 | [E,Be^g]3 [EBeg] | [Acea]3 [Acea] | [dfa]3 [dfa] | [A,cea]3 [cea] | %18
 [Bd^g]3 [Bdg] | [Acea] z z/!f! A/^c/e/ |:[K:A] a/A/c/g/- g/A/c/f/ | f/A/c/e/- e/A/c/f/ | %22
 f/A/c/e/- e/A/c/e/ | f/B/d/e/- e/B/d/e/ | a/B/d/g/- g/B/d/f/ | f/B/d/e/- e/B/d/e/ | %26
 a/B/d/g/- g/B/d/f/ | f/A/c/e/- e/A/c/e/ | a/A/c/g/- g/A/c/f/ | f/A/c/e/- e/A/c/e/ | %30
 f/e/c/A/ f/e/c/A/ | B/^A/B/c/ d2 | z2 D2 | A,2 z2 | E,2 z2 |1 z z z/ A/c/e/ :|2 %36
 z z !fermata!D/ z/ z |:[K:C] C/[Gce][Gce]/ G,[Gce] | D/[dfa][dfa]/ G,[dfa] | %39
 D/[dfa][dfa]/ G,[dfa] | C/[Gce][Gce]/ G,[Gce] | C/[Gce][Gce]/ G,[Gce] | D/[dfa][dfa]/ G,[dfa] | %43
 D/[dfa][dfa]/ G,[dfa] | C/[Gce][Gce]/ G,[Gce] | C/[Gce][Gce]/ G,[Gce] | D/[dfa][dfa]/ G,[dfa] | %47
 D/[dfa][dfa]/ G,[dfa] | C/[Gce][Gce]/- [Gce]/ z/ z/ z/ | z4 | z4 | G/ z/ z B2 | z2 z2 | %53
 z z z/ e/^d/e/ | ^f/e[ae']/- [ae']/e/^d/e/ | ^f/e[^ge']/- [ge']/e/^d/e/ | ^f/e/d'/b/ ^g/e/^d/=d/ | %57
 ^c/[ea][ea]/- [ea]/a/^g/=g/ | ^f/ad'/- d'/b/a/=f/ | e/a^c'/- c'/c'/b/^a/ | %60
 b/B/^d/^f/ [Adfb]/f/b/a/ | ^g/ z/ z z2 | z4 | z4 | z4 | z4 | z4 | z4 |] %68
V:4
 x4 | x4 | x4 | x4 | A,4 | x4 | E,4 | A,4 | D4 | A,3 A, | z3 z | E,4 | x4 | x4 | x4 | x4 | D4 | %17
 x4 | x4 | x4 |:[K:A] x4 | x4 | x4 | x4 | x4 | x4 | x4 | x4 | x4 | x4 | x4 | x4 | x4 | x4 | x4 |1 %35
 x4 :|2 x4 |:[K:C] x4 | x4 | x4 | x4 | x4 | x4 | x4 | x4 | x4 | x4 | x4 | x4 | x4 | x4 | x4 | x4 | %53
 x4 | A,2 E,2 | E,2 E,2 | B,2 E,2 | A,2 A,2 | D2 D2 | A,2 ^F2 | B,4 | E,2 z2 | x4 | x4 | x4 | x4 | %66
 x4 | x4 |] %68
V:5
 E/DC/ B,A, | ^G,=G, ^F,=F, | z2 E2 | E,2 z2 | A,>A, CE | E,>E, ^G,B, | E,>E, ^G,B, | A,>A, CE | %8
 D>D FA | A,>A, CE | B,>B, ^D^F | z4 | A,>A, CE | E,>E, ^G,B, | E,>E, ^G,B, | A,>A, CE | D>D FA | %17
 A,>A, CE | B,/E,/^G,/B,/ E/D/C/B,/ | A,E, A, z |: %20
[K:A]"_Flip Over Guitar And Hit The Back!" B/BB/ BB | B/BB/ BB | B/BB/ BB | B/BB/ BB | B/BB/ BB | %25
 B/BB/ BB | B/BB/ BB | B/BB/ BB | B/BB/ BB | B/BB/ BB | z4 | z4 | D/C/D/E/ F/G/A/B/ | %33
 c/d/^d/e/ f/e/=d/c/ | B/A/G/F/ E/D/C/B,/ |1 A,E, A,2 :|2 A,G, !fermata!=G,/ z/ z |: %37
[K:C] C/CC/ G,^C | D/DD/ G,G, | D/DD/ G,B, | C/CC/ G,G, | C/CC/ G,^C | D/DD/ G,G, | D/DD/ G,B, | %44
 G/e/c/A/ ^G/c/A/G/ | C/CC/ G,^C | D/DD/ G,G, | D/DD/ G,G, | C/CC/- C<E, | F,/[CFA][CFA]/ F,^F, | %50
 G,/[EGc][EGc]/ G,[EGc] | D/[FAd][EAd]/ G,[DGB] | CG C/ z/ z | z4 | z2 z2 | z4 | z4 | z4 | z4 | %59
 z4 | z4 | z4 | z4 | z4 | z4 | z4 | z4 | z4 |] %68
V:6
 x4 | x4 | E,4 | x4 | x4 | x4 | x4 | x4 | x4 | x4 | x4 | E/F/D/E/ C/D/B,/C/ | x4 | x4 | x4 | x4 | %16
 x4 | x4 | x4 | x4 |:[K:A] x4 | x4 | x4 | x4 | x4 | x4 | x4 | x4 | x4 | x4 | x4 | x4 | x4 | x4 | %34
 x4 |1 x4 :|2 x4 |:[K:C] x4 | x4 | x4 | x4 | x4 | x4 | x4 | x4 | x4 | x4 | x4 | x4 | x4 | x4 | x4 | %52
 x4 | x4 | x4 | x4 | x4 | x4 | x4 | x4 | x4 | x4 | x4 | x4 | x4 | x4 | x4 | x4 |] %68

